X:1
T:Gathering Out of Tears
T:William James Kirkpatrick
T:Gathering Out of Tears
T:Public Domain
T:Public Domain
T:Public Domain
C:William James Kirkpatrick
Z:Public Domain
%%score ( 1 2 ) ( 3 4 )
L:1/8
M:4/4
K:Bb
V:1 treble 
V:2 treble 
V:3 bass 
V:4 bass 
V:1
 [DF]>[DF] [DF]>[DF] [DB]2 [DB]>[EG] | [DF]4 [B,D]4 | [DF]>[DF] [DF]>[DF] [FB]2 [EA]>[DB] | [Ec]8 | %4
w: 1.~Steer our bark a- way to the|home- land,|Spread the sails of hope o’er the|sea;|
w: 2.~Steer our bark a- way to the|home- land,|On with- out a fear let us|go;|
w: 3.~Bright and fair the hills of the|home- land,|Clad in all the bloom of the|spring;|
w: 4.~Soft the winds that blow from the|home- land,|Sweet the morn that breaks on the|shore;|
 [DF]>[DF] [DF]>[DF] [DB]2 [DB]>[EG] | [DF]4 [B,D]3 [DF] | [EG]>[EG] [Ec]>[Ec] [EF]2 [EG]>[EA] | %7
w: Think of all the friends that a-|wait us, When|an- chored safe- ly there we shall|
w: When the port of peace we are|near- ing, The|bless- èd har- bor lights we shall|
w: There to Him Who loved and re-|deemed us, Our|joy- ful, joy- ful praise we will|
w: Soon we’ll meet a- gain our be-|loved ones, Where|sor- row’s plaint- ive moan comes no|
 [DB]8 ||"^Refrain" (3[Fd][Fd][Fd] [Fd]>[Ec] [DB]2 [B,D]>[CE] | [D-F]3 [EG] [DF]4 | %10
w: be.|||
w: know.|Gat- her- ing out of tears in- to|sun- shine, *|
w: sing.|||
w: more.|||
 (3[Fd][Fd][Fd] [Fd]>[Fc] [=EB]>[EB] [EA]>[EB] | (E>E E>E E4) | %12
w: ||
w: Ga- ther- ing out of la- bor in- to|rest; * * * *|
w: ||
w: ||
 [B,D]>[CE] [DF]>[EG] [DF]2 [FB]>[FA] | [EG]>[B,E] [EG]>[EB] [Ge]4 | %14
w: ||
w: the ran- somed throng shout- ing forth|their joy in song, Ga-|
w: ||
w: ||
 (3[Fd][Fd][Fd] [DB]>[Fd] [Ec]>[Fd] [EG]>[EA] | (D>D E>E D4) |] %16
w: ||
w: ther- ing to the man- sions of the blest.||
w: ||
w: ||
V:2
 x8 | x8 | x8 | x8 | x8 | x8 | x8 | x8 || x8 | x8 | x8 | c8 | x8 | x8 | x8 | B8 |] %16
w: ||||||||||||||||
w: |||||||||||Hear|||||
V:3
 [B,,B,]>[B,,B,] [B,,B,]>[B,,B,] [B,,F,]2 [B,,F,]>[B,,F,] | [B,,B,]4 [B,,F,]4 | %2
w: ~ ~ ~ ~ ~ ~ ~|~ ~|
 [B,,B,]>[B,,B,] [B,,B,]>[B,,B,] [D,F,]2 [C,F,]>[B,,F,] | [F,A,]8 | %4
w: ~ ~ ~ ~ ~ ~ ~|~|
 [B,,B,]>[B,,B,] [B,,B,]>[B,,B,] [B,,F,]2 [B,,F,]>[B,,F,] | [B,,B,]4 [B,,F,]3 [B,,B,] | %6
w: ~ ~ ~ ~ ~ ~ ~|~ ~ ~|
 [E,B,]>[E,B,] [E,G,]>[E,G,] [F,A,]2 [F,C]>[F,C] | [B,,B,]8 || %8
w: ~ ~ ~ ~ ~ ~ ~|~|
 (3[B,,B,][B,,B,][B,,B,] [B,,B,]>[B,,F,] [B,,F,]2 [B,,F,]>[B,,F,] | [B,,B,]4 [B,,B,]4 | %10
w: ~ ~ ~ ~ ~ ~ ~ ~|~ ~|
 (3B,B,B, B,>[A,C] [G,C]>[G,C] [C,C]>[C,B,] | [F,A,]>[F,A,] [F,A,]>[F,A,] [F,A,]4 | %12
w: ~ ~ ~ ~ ~ ~ ~ out of|rest ~ ~ ~ ~|
 [B,,F,]>[B,,F,] [B,,B,]>[B,,B,] [B,,B,]2 [D,B,]>[D,B,] | [E,B,]>[E,G,] [E,B,]>[E,G,] [E,B,]4 | %14
w: ~ ~ ~ ~ ~ ~ ~|~ ~ ~ ~ ~|
 (3[F,B,][F,B,][F,B,] [F,B,]>[F,B,] [F,A,]>[F,A,] [F,B,]>[F,C] | B,>F, G,>G, F,4 |] %16
w: ~ ~ ~ to the man- sions of the|blest * * * *|
V:4
 x8 | x8 | x8 | x8 | x8 | x8 | x8 | x8 || x8 | x8 | B,B,B,B,3/2 x7/2 | x8 | x8 | x8 | x8 | B,,8 |] %16
w: ||||||||||la- bor in- to||||||

